X: 2
T: Gavotte des Montagnes (2)
R: Gavotte
M: 4/4
L: 1/8
K: Bmin
| e2dB cAFE | FAcd B2B2 | e2dB cAFE | FAcd B2B2 ||
|: fegg fede | fegf efd2 | efdB cAFE | FAcd B2B2 :|

